src/lib/packages/icons/src/assets/filled/lightbulb.svg

<svg width="24" height="24" viewBox="0 0 24 24" fill="none" xmlns="http://www.w3.org/2000/svg">
<path d="M18 9.43997C18.03 11.4 17.0701 12.9201 15.8701 14.3101C15.3961 14.8651 14.9731 15.396 14.7271 16.052C14.6831 16.169 14.5769 16.25 14.4529 16.25H12.55C12.384 16.25 12.25 16.116 12.25 15.95V13.3101L14.03 11.5301C14.32 11.2401 14.32 10.76 14.03 10.47C13.74 10.18 13.26 10.18 12.97 10.47L11.5 11.94L10.03 10.47C9.74003 10.18 9.25997 10.18 8.96997 10.47C8.67997 10.76 8.67997 11.2401 8.96997 11.5301L10.75 13.3101V15.95C10.75 16.116 10.616 16.25 10.45 16.25H8.53491C8.41091 16.25 8.30596 16.17 8.26196 16.054C8.00696 15.386 7.57409 14.8451 7.09009 14.2801C6.00009 13.0001 5 11.39 5 9.50003C5 5.85003 8.00994 2.90003 11.6899 3.00003C15.1199 3.10003 17.94 6.01997 18 9.43997ZM14.2 17.75C14.082 17.75 8.91805 17.75 8.80005 17.75C8.50005 17.75 8.5 18 8.5 18C8.5 19 8.83988 19.75 9.37988 20.25C9.91988 20.75 10.67 21 11.5 21C12.33 21 13.0801 20.75 13.6201 20.25C14.1601 19.75 14.5 19 14.5 18C14.5 18 14.5 17.75 14.2 17.75Z" fill="currentColor"/>
</svg>

<svg xmlns="http://www.w3.org/2000/svg" width="24" height="24" fill="none"><path fill="currentColor" d="M18 9.44c.03 1.96-.93 3.48-2.13 4.87-.474.555-.897 1.086-1.143 1.742a.296.296 0 0 1-.274.198H12.55a.3.3 0 0 1-.3-.3v-2.64l1.78-1.78c.29-.29.29-.77 0-1.06a.754.754 0 0 0-1.06 0l-1.47 1.47-1.47-1.47a.755.755 0 0 0-1.06 0c-.29.29-.29.77 0 1.06l1.78 1.78v2.64a.3.3 0 0 1-.3.3H8.535a.294.294 0 0 1-.273-.196c-.255-.668-.688-1.209-1.172-1.774C6 13 5 11.39 5 9.5 5 5.85 8.01 2.9 11.69 3c3.43.1 6.25 3.02 6.31 6.44Zm-3.8 8.31H8.8c-.3 0-.3.25-.3.25 0 1 .34 1.75.88 2.25s1.29.75 2.12.75c.83 0 1.58-.25 2.12-.75S14.5 19 14.5 18c0 0 0-.25-.3-.25Z"/></svg>
